X:063 
T:Gauger (reel), The 
T:High Reel
B:CRE3.140 (TuisÃÂÃÂÃÂÃÂ©ara)
F:file ID: cre.3/063gauger
R:reel
M:C
L:1/8
Q:180
K:D
"A modal"
a2fa eAAB|(3cBA eA cAA2|a2fa eAAd|BG~G2 dGBG|
a2fa eAAB|cAaf g2fg|afge fdec|1 Bdgd BGdB:|\
[2 Bdgd BGGA||
|:c/B/A eA fAeA|cAaf e2ed|cA~A2 fAeA|Bdgd BGGA|
c/B/A eA fAeA|ceaf g2fg|afge fdec|Bdgd BGGA:|

%%%

